packages/core/src/svgs/crv.svg

<svg width="24" height="24" viewBox="0 0 24 24" fill="none" xmlns="http://www.w3.org/2000/svg">
<g clip-path="url(#clip0_31_8762)">
<path d="M0 0H24V24H0V0Z" fill="#F0F3FA"/>
<path d="M19.6838 12.1313C18.7577 14.5236 14.8002 15.2217 10.8445 13.6904C7.11594 12.2474 3.67708 6.35241 8.32665 4.39898C9.97751 4.02784 12.0878 4.21041 14.1981 5.02727C18.1538 6.55812 20.6095 9.73898 19.6838 12.1313Z" fill="url(#paint0_linear_31_8762)"/>
<path d="M15.1098 5.95364C14.1995 5.7865 14.1395 6.95778 14.2643 7.61221C16.69 8.57007 17.5021 9.99592 17.5621 10.0859C18.6704 9.14264 19.7984 10.1965 19.8991 11.0018C19.7787 8.38835 16.3484 6.18164 15.1098 5.95364Z" fill="url(#paint1_linear_31_8762)"/>
<path d="M5.98405 16.3824C5.34805 14.4247 5.93177 12.7009 6.30334 12.0838C5.96991 10.5388 5.34462 7.43637 5.32491 7.45566C4.22691 11.3188 5.21948 15.0641 5.87605 16.4454L5.98405 16.3824Z" fill="url(#paint2_linear_31_8762)"/>
<path d="M5.22982 7.92002C5.32154 7.18202 5.7844 6.29445 6.07882 5.8843L11.3357 4.29688C16.7224 5.19002 15.4658 7.37616 11.4685 6.99988C10.2373 6.88416 10.8313 8.02845 10.9037 9.08616C11.2371 11.3319 10.7301 11.5933 9.94754 12.7522C9.6724 12.1869 9.0634 11.115 7.97697 11.0422C7.1074 10.9843 6.26268 12.0853 6.07882 12.4907C6.0304 12.4474 5.86711 11.7142 5.77454 11.4129C5.2924 10.4074 5.06568 9.24345 5.23025 7.92002H5.22982Z" fill="url(#paint3_linear_31_8762)"/>
<path d="M5.8135 7.87818C5.66222 7.22375 5.7505 6.63875 5.8135 6.42832C5.96436 5.85404 6.71822 4.63432 8.52722 4.34975C10.3362 4.06561 11.9558 4.30518 12.5395 4.62104C13.0941 4.99347 12.8545 6.12532 11.7269 5.80604C10.0851 5.33204 9.83093 5.95818 9.96636 6.82175C10.3319 8.73147 10.1185 10.0103 9.96636 10.4106C9.96636 10.4106 9.47522 11.6466 9.06893 11.2575C8.37465 10.5632 7.73179 10.6986 7.02036 10.8846C6.45165 11.0338 6.28065 10.6309 6.26607 10.4106C6.17822 9.83932 5.96522 8.53304 5.8135 7.87818Z" fill="url(#paint4_linear_31_8762)"/>
<path d="M7.40479 4.68759C6.11479 5.30216 6.58108 7.70431 6.98308 8.89188C7.42151 8.61759 8.76379 8.72688 9.17479 9.16531C8.56108 5.68016 10.0118 4.28516 10.4502 4.31259C10.4502 4.31259 9.72979 4.23545 9.22879 4.27788C8.62794 4.31216 7.98079 4.41288 7.40479 4.68759Z" fill="url(#paint5_linear_31_8762)"/>
<path d="M17.6215 10.0364C16.6015 11.1738 13.2685 11.6396 11.73 11.7305C12.0505 13.2691 11.7595 15.6116 11.574 16.5905C13.557 15.9639 17.6837 14.6782 18.3244 14.5475C19.1254 14.3838 20.106 13.1255 19.9427 11.2946C19.7794 9.46421 18.2755 9.34978 17.6215 10.0364Z" fill="url(#paint6_linear_31_8762)"/>
<path d="M10.9529 8.68708C10.7107 8.78908 11.5036 10.7687 11.7599 11.7587C15.7413 11.4608 17.0677 10.4734 17.084 10.4734C14.8516 8.62365 11.2559 8.55937 10.9529 8.68708Z" fill="url(#paint7_linear_31_8762)"/>
<path d="M17.5705 10.1028C16.9774 7.87128 11.442 6.66142 10.8741 7.05356C10.5347 7.28756 10.6731 8.1927 10.8741 8.7027C13.6178 8.43399 16.191 9.77542 17.0571 10.462C17.1934 10.4298 17.52 10.1826 17.5705 10.1028Z" fill="url(#paint8_linear_31_8762)"/>
<path d="M18.4619 10.5644C17.306 10.7843 17.4025 10.2996 17.5949 10.03C18.2078 9.27872 19.2565 9.71715 19.7043 10.03C19.772 10.1166 19.6178 10.345 18.4619 10.5644Z" fill="url(#paint9_linear_31_8762)"/>
<path d="M8.42224 18.5554C9.76277 18.4502 10.7177 16.6865 10.5551 14.6161C10.3925 12.5457 9.17402 10.9527 7.83349 11.0579C6.49296 11.1632 5.53805 12.9269 5.70062 14.9973C5.8632 17.0677 7.08171 18.6607 8.42224 18.5554Z" fill="url(#paint10_linear_31_8762)"/>
<path d="M7.78923 12.7463C6.97923 12.8963 6.3098 12.6421 6.07666 12.4964C6.29737 12.0507 6.8738 11.083 7.96452 11.0084C8.9498 10.9411 9.58023 11.7365 9.86395 12.337C9.45123 12.3035 8.59966 12.5963 7.78966 12.7463H7.78923Z" fill="url(#paint11_linear_31_8762)"/>
<path d="M7.78923 12.7463C6.97923 12.8963 6.3098 12.6421 6.07666 12.4964C6.29737 12.0507 6.8738 11.083 7.96452 11.0084C8.9498 10.9411 9.58023 11.7365 9.86395 12.337C9.45123 12.3035 8.59966 12.5963 7.78966 12.7463H7.78923Z" fill="url(#paint12_linear_31_8762)" fill-opacity="0.5"/>
<path d="M9.01411 19.6438C10.4014 19.6747 11.2843 17.8541 11.5521 16.94L10.2385 16.838C10.1194 17.3694 9.5134 18.3928 8.37468 18.5231C7.16525 18.6615 6.26483 17.141 5.98454 16.376C5.95313 16.4068 5.9143 16.4289 5.87183 16.4403C6.24168 17.5888 7.27926 19.6057 9.01411 19.6438Z" fill="url(#paint13_linear_31_8762)"/>
<path d="M9.01411 19.6438C10.4014 19.6747 11.2843 17.8541 11.5521 16.94L10.2385 16.838C10.1194 17.3694 9.5134 18.3928 8.37468 18.5231C7.16525 18.6615 6.26483 17.141 5.98454 16.376C5.95313 16.4068 5.9143 16.4289 5.87183 16.4403C6.24168 17.5888 7.27926 19.6057 9.01411 19.6438Z" fill="url(#paint14_linear_31_8762)"/>
<path d="M10.7013 8.18256C11.3253 10.1956 10.5406 11.9527 10.0208 12.632C10.8359 14.528 10.2453 16.3978 10.2453 16.9293C10.2453 17.4611 11.3798 17.3193 11.5568 16.9293C12.2112 14.8991 12.1748 11.3004 10.7018 8.18213L10.7013 8.18256Z" fill="url(#paint15_linear_31_8762)"/>
<path d="M6.51417 12.6696L6.09717 12.4998C6.21288 12.1394 6.78674 11.068 7.94217 11.0093C7.5766 11.1143 6.67445 11.9641 6.5146 12.6696H6.51417Z" fill="url(#paint16_linear_31_8762)"/>
<path opacity="0.3" d="M8.03871 12.7063C7.17299 12.9369 6.39599 12.6828 6.11571 12.5272C5.87914 12.957 5.78357 13.4486 5.76514 13.6406C6.96728 14.0019 9.14657 13.2356 10.0864 12.8075L9.86785 12.3403C9.61928 12.366 8.90442 12.4758 8.03871 12.7063Z" fill="#F4BA0C"/>
</g>
<defs>
<linearGradient id="paint0_linear_31_8762" x1="10.3302" y1="4.51384" x2="18.8768" y2="9.88213" gradientUnits="userSpaceOnUse">
<stop offset="0.339" stop-color="#FF7301"/>
<stop offset="0.948" stop-color="#FFDD01"/>
</linearGradient>
<linearGradient id="paint1_linear_31_8762" x1="14.5355" y1="5.93778" x2="19.381" y2="9.8275" gradientUnits="userSpaceOnUse">
<stop stop-color="#FF8101"/>
<stop offset="1" stop-color="#FFE601"/>
</linearGradient>
<linearGradient id="paint2_linear_31_8762" x1="4.36234" y1="11.5211" x2="2.66176" y2="16.4454" gradientUnits="userSpaceOnUse">
<stop stop-color="#FF9100"/>
<stop offset="0.314" stop-color="#D4FF23"/>
<stop offset="0.49" stop-color="#87FF70"/>
<stop offset="0.688" stop-color="#1CFFDB"/>
<stop offset="1" stop-color="#00BEFF"/>
</linearGradient>
<linearGradient id="paint3_linear_31_8762" x1="11.7557" y1="4.56087" x2="14.301" y2="5.63102" gradientUnits="userSpaceOnUse">
<stop stop-color="#FF4E00"/>
<stop offset="1" stop-color="#FF7300"/>
</linearGradient>
<linearGradient id="paint4_linear_31_8762" x1="10.6405" y1="5.61661" x2="12.8464" y2="5.92261" gradientUnits="userSpaceOnUse">
<stop stop-color="#FA0F00"/>
<stop offset="1" stop-color="#FF6E01"/>
</linearGradient>
<linearGradient id="paint5_linear_31_8762" x1="7.00194" y1="5.98059" x2="8.50022" y2="9.96116" gradientUnits="userSpaceOnUse">
<stop stop-color="#A80000"/>
<stop offset="1" stop-color="#FA0F01"/>
</linearGradient>
<linearGradient id="paint6_linear_31_8762" x1="15.06" y1="11.2136" x2="16.0984" y2="15.2375" gradientUnits="userSpaceOnUse">
<stop stop-color="#FFE600"/>
<stop offset="0.469" stop-color="#7AFF7D"/>
<stop offset="0.891" stop-color="#1CFFDB"/>
<stop offset="1" stop-color="#00DCFE"/>
</linearGradient>
<linearGradient id="paint7_linear_31_8762" x1="14.138" y1="9.6098" x2="13.7219" y2="11.5508" gradientUnits="userSpaceOnUse">
<stop stop-color="#F1FC06"/>
<stop offset="0.469" stop-color="#7AFF7D"/>
<stop offset="1" stop-color="#1CFFDB"/>
</linearGradient>
<linearGradient id="paint8_linear_31_8762" x1="11.9807" y1="7.86442" x2="15.285" y2="11.716" gradientUnits="userSpaceOnUse">
<stop stop-color="#FFC100"/>
<stop offset="1" stop-color="#F1FC06"/>
</linearGradient>
<linearGradient id="paint9_linear_31_8762" x1="18.5978" y1="9.61515" x2="18.5978" y2="10.6201" gradientUnits="userSpaceOnUse">
<stop stop-color="#FFD701"/>
<stop offset="1" stop-color="#FFE601"/>
</linearGradient>
<linearGradient id="paint10_linear_31_8762" x1="6.98909" y1="11.6534" x2="8.42221" y2="18.555" gradientUnits="userSpaceOnUse">
<stop stop-color="#FFA300"/>
<stop offset="0.214" stop-color="#DEFF19"/>
<stop offset="0.464" stop-color="#A4FF53"/>
<stop offset="0.688" stop-color="#36FFC1"/>
<stop offset="0.865" stop-color="#00A0FF"/>
<stop offset="0.974" stop-color="#0064FF"/>
</linearGradient>
<linearGradient id="paint11_linear_31_8762" x1="6.4928" y1="11.8235" x2="11.8709" y2="12.19" gradientUnits="userSpaceOnUse">
<stop stop-color="#FF8A01"/>
<stop offset="1" stop-color="#FFDB00"/>
</linearGradient>
<linearGradient id="paint12_linear_31_8762" x1="9.05952" y1="13.6445" x2="8.99566" y2="10.8374" gradientUnits="userSpaceOnUse">
<stop stop-color="#DFFD18"/>
<stop offset="1" stop-color="#FDAD12"/>
</linearGradient>
<linearGradient id="paint13_linear_31_8762" x1="10.6675" y1="17.5794" x2="8.70811" y2="19.4823" gradientUnits="userSpaceOnUse">
<stop stop-color="#14F3E6"/>
<stop offset="1" stop-color="#0040FF"/>
</linearGradient>
<linearGradient id="paint14_linear_31_8762" x1="6.29183" y1="16.7235" x2="8.29197" y2="18.0054" gradientUnits="userSpaceOnUse">
<stop stop-color="#09D3F3"/>
<stop offset="1" stop-color="#0001FC" stop-opacity="0"/>
</linearGradient>
<linearGradient id="paint15_linear_31_8762" x1="10.4883" y1="12.3714" x2="11.9258" y2="18.3166" gradientUnits="userSpaceOnUse">
<stop stop-color="#FF9100"/>
<stop offset="0.314" stop-color="#D4FF23"/>
<stop offset="0.49" stop-color="#87FF70"/>
<stop offset="0.688" stop-color="#1CFFDB"/>
<stop offset="1" stop-color="#00D8FF"/>
</linearGradient>
<linearGradient id="paint16_linear_31_8762" x1="6.17345" y1="11.6003" x2="6.79574" y2="12.6696" gradientUnits="userSpaceOnUse">
<stop stop-color="#FF4E01"/>
<stop offset="1" stop-color="#F4BB0C"/>
</linearGradient>
<clipPath id="clip0_31_8762">
<rect width="24" height="24" fill="white"/>
</clipPath>
</defs>
</svg>

<svg xmlns="http://www.w3.org/2000/svg" width="24" height="24" fill="none" viewBox="0 0 24 24"><g clip-path="url(#a)"><path fill="#F0F3FA" d="M0 0h24v24H0z"/><path fill="url(#b)" d="M19.684 12.131c-.926 2.393-4.884 3.09-8.84 1.56-3.728-1.444-7.167-7.339-2.517-9.292 1.65-.371 3.76-.189 5.871.628 3.956 1.531 6.412 4.712 5.486 7.104"/><path fill="url(#c)" d="M15.11 5.954c-.91-.167-.97 1.004-.846 1.658 2.426.958 3.238 2.384 3.298 2.474 1.108-.943 2.236.11 2.337.916-.12-2.614-3.55-4.82-4.79-5.048"/><path fill="url(#d)" d="M5.984 16.382c-.636-1.957-.052-3.681.32-4.298-.334-1.545-.96-4.648-.98-4.628-1.097 3.863-.105 7.608.552 8.99z"/><path fill="url(#e)" d="M5.23 7.92c.092-.738.554-1.626.849-2.036l5.257-1.587c5.386.893 4.13 3.08.133 2.703-1.232-.116-.638 1.028-.565 2.086.333 2.246-.174 2.507-.956 3.666-.276-.565-.885-1.637-1.971-1.71-.87-.058-1.714 1.043-1.898 1.449-.049-.044-.212-.777-.304-1.078-.483-1.006-.71-2.17-.545-3.493"/><path fill="url(#f)" d="M5.814 7.878c-.152-.654-.064-1.24 0-1.45.15-.574.904-1.794 2.713-2.078s3.429-.045 4.013.271c.554.372.315 1.504-.813 1.185-1.642-.474-1.896.152-1.76 1.016.365 1.91.151 3.188 0 3.589 0 0-.492 1.236-.898.847-.694-.695-1.337-.56-2.049-.373-.568.149-.74-.254-.754-.474-.088-.572-.3-1.878-.452-2.533"/><path fill="url(#g)" d="M7.405 4.688c-1.29.614-.824 3.016-.422 4.204.439-.274 1.78-.165 2.192.273-.614-3.485.837-4.88 1.275-4.852 0 0-.72-.078-1.221-.035-.601.034-1.248.135-1.824.41"/><path fill="url(#h)" d="M17.622 10.036c-1.02 1.138-4.353 1.604-5.892 1.694.32 1.54.03 3.882-.156 4.86 1.983-.626 6.11-1.912 6.75-2.043.801-.163 1.782-1.421 1.619-3.252s-1.668-1.945-2.322-1.259"/><path fill="url(#i)" d="M10.953 8.687c-.242.102.55 2.082.807 3.072 3.981-.298 5.308-1.286 5.324-1.286-2.232-1.85-5.828-1.914-6.131-1.786"/><path fill="url(#j)" d="M17.57 10.103c-.593-2.232-6.128-3.442-6.696-3.05-.34.235-.2 1.14 0 1.65 2.744-.269 5.317 1.072 6.183 1.759.136-.032.463-.28.514-.36"/><path fill="url(#k)" d="M18.462 10.564c-1.156.22-1.06-.264-.867-.534.613-.751 1.662-.313 2.11 0 .067.087-.087.315-1.243.534"/><path fill="url(#l)" d="M8.422 18.555c1.34-.105 2.296-1.869 2.133-3.939s-1.381-3.663-2.722-3.558-2.295 1.869-2.132 3.94 1.38 3.663 2.721 3.557"/><path fill="url(#m)" d="M7.79 12.746c-.81.15-1.48-.104-1.713-.25.22-.445.797-1.413 1.888-1.488.985-.067 1.615.729 1.899 1.329-.413-.034-1.264.26-2.074.41"/><path fill="url(#n)" fill-opacity=".5" d="M7.79 12.746c-.81.15-1.48-.104-1.713-.25.22-.445.797-1.413 1.888-1.488.985-.067 1.615.729 1.899 1.329-.413-.034-1.264.26-2.074.41"/><path fill="url(#o)" d="M9.014 19.644c1.387.03 2.27-1.79 2.538-2.704l-1.313-.102c-.12.531-.726 1.555-1.864 1.685-1.21.139-2.11-1.382-2.39-2.147a.26.26 0 0 1-.113.064c.37 1.149 1.407 3.166 3.142 3.204"/><path fill="url(#p)" d="M9.014 19.644c1.387.03 2.27-1.79 2.538-2.704l-1.313-.102c-.12.531-.726 1.555-1.864 1.685-1.21.139-2.11-1.382-2.39-2.147a.26.26 0 0 1-.113.064c.37 1.149 1.407 3.166 3.142 3.204"/><path fill="url(#q)" d="M10.701 8.183c.624 2.013-.16 3.77-.68 4.449.815 1.896.224 3.766.224 4.297 0 .532 1.135.39 1.312 0 .654-2.03.618-5.629-.855-8.747"/><path fill="url(#r)" d="m6.514 12.67-.417-.17c.116-.36.69-1.432 1.845-1.49-.365.104-1.268.954-1.427 1.66"/><path fill="#F4BA0C" d="M8.039 12.706c-.866.23-1.643-.023-1.923-.179-.237.43-.332.922-.35 1.114 1.201.36 3.38-.405 4.32-.834l-.218-.467c-.249.026-.964.136-1.83.366" opacity=".3"/></g><defs><linearGradient id="b" x1="10.33" x2="18.877" y1="4.514" y2="9.882" gradientUnits="userSpaceOnUse"><stop offset=".339" stop-color="#FF7301"/><stop offset=".948" stop-color="#FFDD01"/></linearGradient><linearGradient id="c" x1="14.536" x2="19.381" y1="5.938" y2="9.828" gradientUnits="userSpaceOnUse"><stop stop-color="#FF8101"/><stop offset="1" stop-color="#FFE601"/></linearGradient><linearGradient id="d" x1="4.362" x2="2.662" y1="11.521" y2="16.445" gradientUnits="userSpaceOnUse"><stop stop-color="#FF9100"/><stop offset=".314" stop-color="#D4FF23"/><stop offset=".49" stop-color="#87FF70"/><stop offset=".688" stop-color="#1CFFDB"/><stop offset="1" stop-color="#00BEFF"/></linearGradient><linearGradient id="e" x1="11.756" x2="14.301" y1="4.561" y2="5.631" gradientUnits="userSpaceOnUse"><stop stop-color="#FF4E00"/><stop offset="1" stop-color="#FF7300"/></linearGradient><linearGradient id="f" x1="10.64" x2="12.846" y1="5.617" y2="5.923" gradientUnits="userSpaceOnUse"><stop stop-color="#FA0F00"/><stop offset="1" stop-color="#FF6E01"/></linearGradient><linearGradient id="g" x1="7.002" x2="8.5" y1="5.981" y2="9.961" gradientUnits="userSpaceOnUse"><stop stop-color="#A80000"/><stop offset="1" stop-color="#FA0F01"/></linearGradient><linearGradient id="h" x1="15.06" x2="16.098" y1="11.214" y2="15.238" gradientUnits="userSpaceOnUse"><stop stop-color="#FFE600"/><stop offset=".469" stop-color="#7AFF7D"/><stop offset=".891" stop-color="#1CFFDB"/><stop offset="1" stop-color="#00DCFE"/></linearGradient><linearGradient id="i" x1="14.138" x2="13.722" y1="9.61" y2="11.551" gradientUnits="userSpaceOnUse"><stop stop-color="#F1FC06"/><stop offset=".469" stop-color="#7AFF7D"/><stop offset="1" stop-color="#1CFFDB"/></linearGradient><linearGradient id="j" x1="11.981" x2="15.285" y1="7.864" y2="11.716" gradientUnits="userSpaceOnUse"><stop stop-color="#FFC100"/><stop offset="1" stop-color="#F1FC06"/></linearGradient><linearGradient id="k" x1="18.598" x2="18.598" y1="9.615" y2="10.62" gradientUnits="userSpaceOnUse"><stop stop-color="#FFD701"/><stop offset="1" stop-color="#FFE601"/></linearGradient><linearGradient id="l" x1="6.989" x2="8.422" y1="11.653" y2="18.555" gradientUnits="userSpaceOnUse"><stop stop-color="#FFA300"/><stop offset=".214" stop-color="#DEFF19"/><stop offset=".464" stop-color="#A4FF53"/><stop offset=".688" stop-color="#36FFC1"/><stop offset=".865" stop-color="#00A0FF"/><stop offset=".974" stop-color="#0064FF"/></linearGradient><linearGradient id="m" x1="6.493" x2="11.871" y1="11.823" y2="12.19" gradientUnits="userSpaceOnUse"><stop stop-color="#FF8A01"/><stop offset="1" stop-color="#FFDB00"/></linearGradient><linearGradient id="n" x1="9.06" x2="8.996" y1="13.645" y2="10.837" gradientUnits="userSpaceOnUse"><stop stop-color="#DFFD18"/><stop offset="1" stop-color="#FDAD12"/></linearGradient><linearGradient id="o" x1="10.668" x2="8.708" y1="17.579" y2="19.482" gradientUnits="userSpaceOnUse"><stop stop-color="#14F3E6"/><stop offset="1" stop-color="#0040FF"/></linearGradient><linearGradient id="p" x1="6.292" x2="8.292" y1="16.724" y2="18.005" gradientUnits="userSpaceOnUse"><stop stop-color="#09D3F3"/><stop offset="1" stop-color="#0001FC" stop-opacity="0"/></linearGradient><linearGradient id="q" x1="10.488" x2="11.926" y1="12.371" y2="18.317" gradientUnits="userSpaceOnUse"><stop stop-color="#FF9100"/><stop offset=".314" stop-color="#D4FF23"/><stop offset=".49" stop-color="#87FF70"/><stop offset=".688" stop-color="#1CFFDB"/><stop offset="1" stop-color="#00D8FF"/></linearGradient><linearGradient id="r" x1="6.173" x2="6.796" y1="11.6" y2="12.67" gradientUnits="userSpaceOnUse"><stop stop-color="#FF4E01"/><stop offset="1" stop-color="#F4BB0C"/></linearGradient><clipPath id="a"><path fill="#fff" d="M0 0h24v24H0z"/></clipPath></defs></svg>
